src/assets/icons/eye-slash.svg

<svg width="14" height="14" viewBox="0 0 14 14" fill="none" xmlns="http://www.w3.org/2000/svg">
<g id="eye-slash">
<g clip-path="url(#clip0_156_4644)">
<g id="Vector">
<path d="M7.00079 1.59991C11.6677 1.59991 13.8596 6.55083 13.9508 6.76202C14.0164 6.91321 14.0164 7.0852 13.9508 7.2372C13.9332 7.27799 13.5156 8.23554 12.6725 9.31468C12.5549 9.46587 12.3781 9.54507 12.1997 9.54507C12.0709 9.54507 11.9405 9.50347 11.8309 9.41787C11.5701 9.21388 11.5237 8.83631 11.7277 8.57552C12.2341 7.92596 12.5709 7.32119 12.7341 7.00041C12.2629 6.07966 10.347 2.79985 7.00079 2.79985C6.63762 2.79985 6.27684 2.83824 5.92806 2.91424C5.59847 2.98144 5.28409 2.77745 5.2145 2.45427C5.1441 2.13028 5.34969 1.8111 5.67367 1.74071C6.10565 1.64791 6.55202 1.59991 7.00079 1.59991Z" fill="black"/>
<path fill-rule="evenodd" clip-rule="evenodd" d="M1.77631 1.7759C2.01069 1.54151 2.39067 1.54151 2.62506 1.7759L12.2229 11.3754C12.4573 11.6097 12.4573 11.9897 12.2229 12.2241C12.1061 12.3417 11.9525 12.4001 11.7989 12.4001C11.6454 12.4001 11.4918 12.3409 11.375 12.2241L10.5142 11.3634C9.45987 12.0377 8.28474 12.3993 6.99921 12.3993C2.33228 12.3993 0.1404 7.44838 0.0492048 7.23719C-0.0155915 7.0876 -0.0163917 6.91721 0.0468048 6.76682C0.0867689 6.67385 0.883053 4.82139 2.51147 3.35981L1.77631 2.62465C1.54192 2.39027 1.54192 2.01029 1.77631 1.7759ZM7.45999 8.30753L5.68569 6.53323C5.5121 7.026 5.61769 7.59557 6.01047 7.98915C6.38885 8.36833 6.96721 8.47072 7.45999 8.30753ZM1.26594 6.9956C1.73471 7.91315 3.6514 11.1994 7.00081 11.1994C7.96076 11.1994 8.84631 10.9562 9.64946 10.4962L8.36074 9.20748C7.95516 9.45867 7.48958 9.59946 7.00081 9.59946C6.30645 9.59946 5.65369 9.32907 5.16252 8.8379C4.29616 7.97075 4.17697 6.64122 4.79294 5.63968L3.36342 4.21016C2.22668 5.21491 1.52272 6.47803 1.26594 6.9956Z" fill="black"/>
</g>
</g>
</g>
<defs>
<clipPath id="clip0_156_4644">
<rect width="14" height="14" fill="white"/>
</clipPath>
</defs>
</svg>

<svg xmlns="http://www.w3.org/2000/svg" fill="none" viewBox="0 0 14 14"><g fill="#000" clip-path="url(#a)"><path d="M7 1.6c4.668 0 6.86 4.95 6.95 5.162a.6.6 0 0 1 0 .475c-.017.041-.434.999-1.277 2.078a.6.6 0 0 1-.842.103.6.6 0 0 1-.103-.842c.506-.65.843-1.255 1.006-1.576-.471-.92-2.387-4.2-5.733-4.2-.363 0-.724.038-1.073.114a.6.6 0 0 1-.254-1.173A6.3 6.3 0 0 1 7 1.6"/><path fill-rule="evenodd" d="M1.776 1.776a.6.6 0 0 1 .85 0l9.597 9.6a.6.6 0 0 1-.848.848l-.86-.86a6.4 6.4 0 0 1-3.516 1.035C2.332 12.4.14 7.45.05 7.237a.6.6 0 0 1-.002-.47C.087 6.674.883 4.82 2.51 3.36l-.735-.735a.6.6 0 0 1 0-.85M7.46 8.308 5.686 6.533A1.4 1.4 0 0 0 6.01 7.99c.379.38.957.482 1.45.319M1.266 6.996c.469.917 2.385 4.203 5.735 4.203.96 0 1.845-.243 2.648-.703L8.361 9.207a2.583 2.583 0 0 1-3.198-.37 2.6 2.6 0 0 1-.37-3.197l-1.43-1.43c-1.136 1.005-1.84 2.268-2.097 2.786" clip-rule="evenodd"/></g><defs><clipPath id="a"><path fill="#fff" d="M0 0h14v14H0z"/></clipPath></defs></svg>
